app/assets/images/badges/profil-4-plus-plus-blanc.svg

<svg width="20" height="20" viewBox="0 0 20 20" fill="none" xmlns="http://www.w3.org/2000/svg">
<path d="M7.17036 4.33353C7.2837 4.33353 7.39148 4.36797 7.4937 4.43686C7.59592 4.50353 7.67814 4.59464 7.74036 4.7102C7.80259 4.82353 7.8337 4.94797 7.8337 5.08353C7.8337 5.21686 7.80259 5.34131 7.74036 5.45686C7.67814 5.57242 7.59592 5.66464 7.4937 5.73353C7.39148 5.8002 7.2837 5.83353 7.17036 5.83353H6.59036V6.46353C6.59036 6.52353 6.57259 6.57242 6.53703 6.61019C6.50148 6.64797 6.45481 6.66686 6.39703 6.66686C6.34148 6.66686 6.29592 6.64797 6.26036 6.61019C6.22481 6.57019 6.20703 6.52131 6.20703 6.46353V4.53686C6.20703 4.47908 6.22592 4.43131 6.2637 4.39353C6.3037 4.35353 6.35259 4.33353 6.41036 4.33353H7.17036ZM7.17036 5.45353C7.21259 5.45353 7.2537 5.43575 7.2937 5.4002C7.33592 5.36464 7.36925 5.31908 7.3937 5.26353C7.42036 5.20575 7.4337 5.14575 7.4337 5.08353C7.4337 5.02131 7.42036 4.96242 7.3937 4.90686C7.36925 4.84908 7.33592 4.80353 7.2937 4.7702C7.2537 4.73464 7.21259 4.71686 7.17036 4.71686H6.59036V5.45353H7.17036Z" fill="#FBF9FA"/>
<path d="M9.10883 4.8502C9.1755 4.8502 9.23105 4.86908 9.2755 4.90686C9.32216 4.94464 9.34549 4.98908 9.34549 5.0402C9.34549 5.10908 9.32772 5.16131 9.29216 5.19686C9.25661 5.2302 9.21438 5.24686 9.16549 5.24686C9.13216 5.24686 9.09438 5.23908 9.05216 5.22353C9.04549 5.22131 9.02994 5.21686 9.0055 5.2102C8.98327 5.20353 8.95883 5.2002 8.93216 5.2002C8.87438 5.2002 8.81883 5.21797 8.7655 5.25353C8.71216 5.28908 8.66772 5.34353 8.63216 5.41686C8.59883 5.48797 8.58216 5.57353 8.58216 5.67353V6.46353C8.58216 6.52131 8.56327 6.57019 8.52549 6.61019C8.48772 6.64797 8.43994 6.66686 8.38216 6.66686C8.32438 6.66686 8.27661 6.64797 8.23883 6.61019C8.20105 6.57019 8.18216 6.52131 8.18216 6.46353V5.08686C8.18216 5.02908 8.20105 4.98131 8.23883 4.94353C8.27661 4.90353 8.32438 4.88353 8.38216 4.88353C8.43994 4.88353 8.48772 4.90353 8.52549 4.94353C8.56327 4.98131 8.58216 5.02908 8.58216 5.08686V5.1302C8.63327 5.03908 8.70661 4.9702 8.80216 4.92353C8.89772 4.87464 8.99994 4.8502 9.10883 4.8502Z" fill="#FBF9FA"/>
<path d="M11.2659 5.77686C11.2659 5.95464 11.2259 6.11464 11.1459 6.25686C11.0659 6.39686 10.9559 6.50575 10.8159 6.58353C10.6782 6.66131 10.5259 6.70019 10.3593 6.70019C10.1904 6.70019 10.037 6.66131 9.89927 6.58353C9.76149 6.50575 9.6526 6.39686 9.5726 6.25686C9.4926 6.11464 9.4526 5.95464 9.4526 5.77686C9.4526 5.59908 9.4926 5.4402 9.5726 5.3002C9.6526 5.15797 9.76149 5.04797 9.89927 4.9702C10.037 4.8902 10.1904 4.8502 10.3593 4.8502C10.5259 4.8502 10.6782 4.8902 10.8159 4.9702C10.9559 5.04797 11.0659 5.15797 11.1459 5.3002C11.2259 5.4402 11.2659 5.59908 11.2659 5.77686ZM10.8659 5.77686C10.8659 5.66797 10.8426 5.57131 10.7959 5.48686C10.7515 5.4002 10.6904 5.33353 10.6126 5.28686C10.537 5.2402 10.4526 5.21686 10.3593 5.21686C10.2659 5.21686 10.1804 5.2402 10.1026 5.28686C10.027 5.33353 9.96594 5.4002 9.91927 5.48686C9.87483 5.57131 9.8526 5.66797 9.8526 5.77686C9.8526 5.88575 9.87483 5.98242 9.91927 6.06686C9.96594 6.15131 10.027 6.21686 10.1026 6.26353C10.1804 6.31019 10.2659 6.33353 10.3593 6.33353C10.4526 6.33353 10.537 6.31019 10.6126 6.26353C10.6904 6.21686 10.7515 6.15131 10.7959 6.06686C10.8426 5.98242 10.8659 5.88575 10.8659 5.77686Z" fill="#FBF9FA"/>
<path d="M12.4568 4.55353C12.3812 4.55353 12.3279 4.57575 12.2968 4.6202C12.2657 4.66242 12.2501 4.70908 12.2501 4.7602V4.91686H12.5535C12.6068 4.91686 12.6512 4.93464 12.6868 4.9702C12.7224 5.00353 12.7401 5.04686 12.7401 5.1002C12.7401 5.15353 12.7224 5.19797 12.6868 5.23353C12.6512 5.26686 12.6068 5.28353 12.5535 5.28353H12.2501V6.46353C12.2501 6.52131 12.2312 6.57019 12.1935 6.61019C12.1557 6.64797 12.1079 6.66686 12.0501 6.66686C11.9924 6.66686 11.9446 6.64797 11.9068 6.61019C11.869 6.57019 11.8501 6.52131 11.8501 6.46353V5.28353H11.6701C11.6168 5.28353 11.5724 5.26686 11.5368 5.23353C11.5012 5.19797 11.4835 5.15353 11.4835 5.1002C11.4835 5.04686 11.5012 5.00353 11.5368 4.9702C11.5724 4.93464 11.6168 4.91686 11.6701 4.91686H11.8501V4.76353C11.8501 4.59686 11.9068 4.46131 12.0201 4.35686C12.1357 4.25242 12.3012 4.2002 12.5168 4.2002C12.599 4.2002 12.6701 4.21686 12.7301 4.2502C12.7924 4.28353 12.8235 4.33464 12.8235 4.40353C12.8235 4.45686 12.8079 4.5002 12.7768 4.53353C12.7457 4.56686 12.7079 4.58353 12.6635 4.58353C12.6524 4.58353 12.6401 4.58242 12.6268 4.5802C12.6157 4.57797 12.6035 4.57575 12.5901 4.57353C12.5368 4.5602 12.4924 4.55353 12.4568 4.55353ZM13.3668 6.46353C13.3668 6.52131 13.3479 6.57019 13.3101 6.61019C13.2724 6.64797 13.2246 6.66686 13.1668 6.66686C13.109 6.66686 13.0612 6.64797 13.0235 6.61019C12.9857 6.57019 12.9668 6.52131 12.9668 6.46353V5.08686C12.9668 5.02908 12.9857 4.98131 13.0235 4.94353C13.0612 4.90353 13.109 4.88353 13.1668 4.88353C13.2246 4.88353 13.2724 4.90353 13.3101 4.94353C13.3479 4.98131 13.3668 5.02908 13.3668 5.08686V6.46353ZM13.1635 4.66686C13.0879 4.66686 13.0346 4.65464 13.0035 4.6302C12.9724 4.60575 12.9568 4.56242 12.9568 4.5002V4.43686C12.9568 4.37464 12.9735 4.33131 13.0068 4.30686C13.0401 4.28242 13.0935 4.2702 13.1668 4.2702C13.2446 4.2702 13.299 4.28242 13.3301 4.30686C13.3612 4.33131 13.3768 4.37464 13.3768 4.43686V4.5002C13.3768 4.56464 13.3601 4.60908 13.3268 4.63353C13.2957 4.65575 13.2412 4.66686 13.1635 4.66686Z" fill="#FBF9FA"/>
<path d="M14.2112 6.46353C14.2112 6.52131 14.1912 6.57019 14.1512 6.61019C14.1134 6.64797 14.0656 6.66686 14.0079 6.66686C13.9523 6.66686 13.9056 6.64797 13.8679 6.61019C13.8301 6.57019 13.8112 6.52131 13.8112 6.46353V4.40353C13.8112 4.34575 13.8301 4.29797 13.8679 4.2602C13.9079 4.2202 13.9568 4.2002 14.0145 4.2002C14.0701 4.2002 14.1168 4.2202 14.1545 4.2602C14.1923 4.29797 14.2112 4.34575 14.2112 4.40353V6.46353Z" fill="#FBF9FA"/>
<path fill-rule="evenodd" clip-rule="evenodd" d="M10 18.75C14.8325 18.75 18.75 14.8325 18.75 10C18.75 5.16751 14.8325 1.25 10 1.25C5.16751 1.25 1.25 5.16751 1.25 10C1.25 14.8325 5.16751 18.75 10 18.75ZM10 20C15.5228 20 20 15.5228 20 10C20 4.47715 15.5228 0 10 0C4.47715 0 0 4.47715 0 10C0 15.5228 4.47715 20 10 20Z" fill="#FBF9FA"/>
<path d="M8.57413 13.2085C8.71413 13.2085 8.8308 13.2552 8.92413 13.3485C9.01746 13.4418 9.06413 13.5585 9.06413 13.6985C9.06413 13.8327 9.01746 13.9464 8.92413 14.0397C8.8308 14.1272 8.71413 14.171 8.57413 14.171H8.20663V15.2997C8.20663 15.4514 8.15413 15.5797 8.04913 15.6847C7.94996 15.7839 7.82454 15.8335 7.67288 15.8335C7.52705 15.8335 7.40455 15.7839 7.30538 15.6847C7.20621 15.5797 7.15663 15.4514 7.15663 15.2997V14.171H4.88163C4.7533 14.171 4.63371 14.1214 4.52288 14.0222C4.41205 13.9172 4.35663 13.7947 4.35663 13.6547C4.35663 13.5264 4.40038 13.4097 4.48788 13.3047L7.25288 9.9185C7.36371 9.7785 7.50955 9.7085 7.69038 9.7085C7.83621 9.7085 7.95871 9.761 8.05788 9.866C8.15705 9.96516 8.20663 10.0906 8.20663 10.2422V13.2085H8.57413ZM7.15663 13.2085V11.4585L5.73913 13.2085H7.15663Z" fill="#FBF9FA"/>
<path d="M12.2596 10.5831C12.3662 10.5831 12.4551 10.6186 12.5262 10.6898C12.5974 10.7564 12.6329 10.8431 12.6329 10.9498C12.6329 11.0564 12.5974 11.1453 12.5262 11.2164C12.4551 11.2831 12.3662 11.3164 12.2596 11.3164H11.3262V12.1898C11.3262 12.3142 11.284 12.4164 11.1996 12.4964C11.1196 12.5764 11.0174 12.6164 10.8929 12.6164C10.7685 12.6164 10.664 12.5764 10.5796 12.4964C10.4996 12.4164 10.4596 12.3142 10.4596 12.1898V11.3164H9.54625C9.43958 11.3164 9.35069 11.2809 9.27958 11.2098C9.20847 11.1386 9.17291 11.0498 9.17291 10.9431C9.17291 10.8364 9.20847 10.7498 9.27958 10.6831C9.35069 10.6164 9.43958 10.5831 9.54625 10.5831H10.4596V9.58975C10.4596 9.46531 10.4996 9.36309 10.5796 9.28309C10.664 9.20309 10.7707 9.16309 10.8996 9.16309C11.024 9.16309 11.1262 9.20309 11.2062 9.28309C11.2862 9.36309 11.3262 9.46531 11.3262 9.58975V10.5831H12.2596Z" fill="#FBF9FA"/>
<path d="M16.0096 10.5831C16.1162 10.5831 16.2051 10.6186 16.2762 10.6898C16.3474 10.7564 16.3829 10.8431 16.3829 10.9498C16.3829 11.0564 16.3474 11.1453 16.2762 11.2164C16.2051 11.2831 16.1162 11.3164 16.0096 11.3164H15.0762V12.1898C15.0762 12.3142 15.034 12.4164 14.9496 12.4964C14.8696 12.5764 14.7674 12.6164 14.6429 12.6164C14.5185 12.6164 14.414 12.5764 14.3296 12.4964C14.2496 12.4164 14.2096 12.3142 14.2096 12.1898V11.3164H13.2962C13.1896 11.3164 13.1007 11.2809 13.0296 11.2098C12.9585 11.1386 12.9229 11.0498 12.9229 10.9431C12.9229 10.8364 12.9585 10.7498 13.0296 10.6831C13.1007 10.6164 13.1896 10.5831 13.2962 10.5831H14.2096V9.58975C14.2096 9.46531 14.2496 9.36309 14.3296 9.28309C14.414 9.20309 14.5207 9.16309 14.6496 9.16309C14.774 9.16309 14.8762 9.20309 14.9562 9.28309C15.0362 9.36309 15.0762 9.46531 15.0762 9.58975V10.5831H16.0096Z" fill="#FBF9FA"/>
</svg>

<svg width="20" height="20" fill="none" xmlns="http://www.w3.org/2000/svg"><path d="M7.17 4.334a.57.57 0 01.324.103.735.735 0 01.246.273.763.763 0 01.094.374.775.775 0 01-.094.373.763.763 0 01-.246.277.582.582 0 01-.324.1h-.58v.63c0 .06-.017.108-.053.146a.183.183 0 01-.14.057.18.18 0 01-.137-.057.213.213 0 01-.053-.146V4.537a.2.2 0 01.203-.203h.76zm0 1.12a.185.185 0 00.124-.054.425.425 0 000-.63.185.185 0 00-.124-.053h-.58v.737h.58zM9.109 4.85c.066 0 .122.02.166.057.047.038.07.082.07.133 0 .07-.017.121-.053.157a.179.179 0 01-.127.05.333.333 0 01-.113-.023 1.18 1.18 0 00-.046-.014.296.296 0 00-.24.043.399.399 0 00-.134.164.6.6 0 00-.05.257v.79a.206.206 0 01-.057.146.194.194 0 01-.143.057.194.194 0 01-.143-.057.206.206 0 01-.057-.146V5.087c0-.058.02-.106.057-.143a.189.189 0 01.143-.06c.058 0 .106.02.143.06a.194.194 0 01.057.143v.043a.495.495 0 01.22-.206.664.664 0 01.307-.074zM11.266 5.777c0 .178-.04.338-.12.48a.848.848 0 01-.33.327.913.913 0 01-.457.116.92.92 0 01-.46-.116.854.854 0 01-.326-.327.962.962 0 01-.12-.48c0-.178.04-.337.12-.477a.848.848 0 01.326-.33.9.9 0 01.46-.12c.167 0 .32.04.457.12.14.078.25.188.33.33.08.14.12.3.12.477zm-.4 0a.59.59 0 00-.07-.29.485.485 0 00-.437-.27.49.49 0 00-.256.07.516.516 0 00-.184.2.613.613 0 00-.066.29c0 .109.022.205.066.29a.49.49 0 00.44.267.49.49 0 00.437-.267.59.59 0 00.07-.29zM12.457 4.554c-.076 0-.13.022-.16.066a.23.23 0 00-.047.14v.157h.303a.18.18 0 01.134.053.17.17 0 01.053.13.18.18 0 01-.053.134.187.187 0 01-.133.05h-.304v1.18a.206.206 0 01-.056.146.194.194 0 01-.144.057.194.194 0 01-.143-.057.206.206 0 01-.057-.146v-1.18h-.18a.187.187 0 01-.133-.05.18.18 0 01-.054-.134.17.17 0 01.054-.13.18.18 0 01.133-.053h.18v-.153c0-.167.057-.303.17-.407.116-.105.281-.157.497-.157.082 0 .153.017.213.05a.163.163 0 01.093.154.183.183 0 01-.046.13.15.15 0 01-.113.05.225.225 0 01-.037-.004 1.1 1.1 0 00-.037-.006.569.569 0 00-.133-.02zm.91 1.91a.206.206 0 01-.057.146.194.194 0 01-.143.057.194.194 0 01-.143-.057.206.206 0 01-.057-.146V5.087c0-.058.019-.106.056-.143a.188.188 0 01.144-.06c.058 0 .105.02.143.06a.194.194 0 01.057.143v1.377zm-.204-1.797c-.075 0-.128-.012-.16-.037-.03-.024-.046-.068-.046-.13v-.063c0-.062.016-.106.05-.13.033-.025.087-.037.16-.037.078 0 .132.012.163.037.031.024.047.068.047.13V4.5c0 .065-.017.11-.05.134-.031.022-.086.033-.163.033zM14.211 6.464a.2.2 0 01-.203.203.19.19 0 01-.14-.057.206.206 0 01-.057-.146v-2.06a.2.2 0 01.203-.203c.056 0 .103.02.14.06a.194.194 0 01.057.143v2.06z" fill="#FBF9FA"/><path fill-rule="evenodd" clip-rule="evenodd" d="M10 18.75a8.75 8.75 0 100-17.5 8.75 8.75 0 000 17.5zM10 20c5.523 0 10-4.477 10-10S15.523 0 10 0 0 4.477 0 10s4.477 10 10 10z" fill="#FBF9FA"/><path d="M8.574 13.209a.475.475 0 01.49.49.464.464 0 01-.14.34.492.492 0 01-.35.132h-.367V15.3a.524.524 0 01-.534.534.5.5 0 01-.368-.15.54.54 0 01-.148-.384V14.17H4.882a.529.529 0 01-.36-.149.491.491 0 01-.165-.367c0-.129.043-.245.13-.35l2.766-3.386a.53.53 0 01.437-.21c.146 0 .269.052.368.157.1.1.149.225.149.376v2.966h.367zm-1.417 0v-1.75l-1.418 1.75h1.418zM12.26 10.583c.106 0 .195.036.266.107a.34.34 0 01.107.26.361.361 0 01-.107.266.375.375 0 01-.266.1h-.934v.874a.404.404 0 01-.126.306.415.415 0 01-.307.12.438.438 0 01-.313-.12.415.415 0 01-.12-.306v-.874h-.914a.362.362 0 01-.373-.373.34.34 0 01.107-.26c.07-.067.16-.1.266-.1h.914V9.59c0-.125.04-.227.12-.307a.447.447 0 01.32-.12c.124 0 .226.04.306.12.08.08.12.182.12.307v.993h.934zM16.01 10.583c.106 0 .195.036.266.107a.34.34 0 01.107.26.361.361 0 01-.107.266.375.375 0 01-.266.1h-.934v.874a.404.404 0 01-.126.306.415.415 0 01-.307.12.438.438 0 01-.313-.12.415.415 0 01-.12-.306v-.874h-.914a.362.362 0 01-.373-.373.34.34 0 01.107-.26c.07-.067.16-.1.266-.1h.914V9.59c0-.125.04-.227.12-.307a.447.447 0 01.32-.12c.124 0 .226.04.306.12.08.08.12.182.12.307v.993h.934z" fill="#FBF9FA"/></svg>
